svg/alphabetical_sorting_2.svg

<svg xmlns="http://www.w3.org/2000/svg" viewBox="0 0 32 32" enable-background="new 0 0 32 32"><path d="M 5 5 L 5 7 L 10.5625 7 L 5.28125 12.28125 L 5 12.59375 L 5 13 L 5 14 L 5 15 L 6 15 L 13 15 L 13 13 L 7.4375 13 L 12.71875 7.71875 L 13 7.40625 L 13 7 L 13 6 L 13 5 L 12 5 L 5 5 z M 22 5 L 22 23.6875 L 19.40625 21.09375 L 18 22.5 L 22.28125 26.8125 L 23 27.5 L 23.71875 26.8125 L 28 22.5 L 26.59375 21.09375 L 24 23.6875 L 24 5 L 22 5 z M 8.1875 17 L 7.96875 17.65625 L 6.03125 23 L 6 23 L 6 23.0625 L 5.0625 25.65625 L 5 25.8125 L 5 26 L 5 27 L 7 27 L 7 26.15625 L 7.40625 25 L 10.59375 25 L 11 26.15625 L 11 27 L 13 27 L 13 26 L 13 25.8125 L 12.9375 25.65625 L 12 23.0625 L 12 23 L 11.96875 23 L 10.03125 17.65625 L 9.8125 17 L 9.09375 17 L 8.90625 17 L 8.1875 17 z M 9 20.65625 L 9.84375 23 L 8.15625 23 L 9 20.65625 z" color="#000" overflow="visible" enable-background="accumulate"/></svg>

<svg xmlns="http://www.w3.org/2000/svg" viewBox="0 0 32 32"><path style="text-indent:0;text-align:start;line-height:normal;text-transform:none;block-progression:tb;-inkscape-font-specification:Bitstream Vera Sans" d="M5 5v2h5.563L5.28 12.28l-.28.314V15h8v-2H7.437l5.282-5.28.28-.314V5H5zm17 0v18.688l-2.594-2.594L18 22.5l4.28 4.313.72.687.72-.688L28 22.5l-1.406-1.406L24 23.687V5h-2zM8.187 17l-.218.656L6.03 23H6v.063l-.938 2.593-.062.157V27h2v-.844L7.406 25h3.188L11 26.156V27h2v-1.188l-.063-.156L12 23.063V23h-.03l-1.94-5.344L9.814 17H8.185zM9 20.656L9.844 23H8.156L9 20.656z" color="#000" overflow="visible" font-family="Bitstream Vera Sans"/></svg>
